X:1
T:Title
%%score ( 1 2 ) ( 3 4 )
L:1/8
Q:1/4=105
M:4/4
K:Ab
V:1 treble nm="Grand Piano, Soprano"
V:2 treble 
V:3 bass nm="Choir Pad, Show Me the Rock, Landon"
V:4 bass 
V:1
 [CE]3 [DF] [CE]2 [A,C]2 | [CE]2 [CA]2 [CE]4 | [DF]3 [FA] [EG]2 [DF]2 | [DF]3 [CE] [CE]4 | %4
w: By~John~Robson~Sweney * * *||||
 E3 [EB] AGFG | [EA]2 [EB]2 [Ec]4 | [DF]3 [FB] [EA]2 [CE]2 | [Ec]2 [DB]2 [CA]4 | c2 c>c c2 C2 | %9
w: |||||
 F2 G2 A4 | [GB]2 [GB]>[GB] [GB]2 [Ed]2 | [Ec]2 [Ec]>[Ec] [Ec]4 | [Ee]2 [Ee]>[Ed] [Ec]2 cB | %13
w: ||||
 [EA]2 [EG]2 [DF]4 | [CE]2 C>E A2 [Ec]2 | [DB]4 [CA]4- | [CA]4 z4 |] %17
w: ||||
V:2
 x8 | x8 | x8 | x8 | z4 E2 E2 | x8 | x8 | x8 | x8 | x8 | x8 | x8 | z4 z2 E2 | x8 | x8 | x8 | x8 |] %17
V:3
 [A,,A,]3 [A,,A,] [A,,A,]2 [A,,E,]2 | [A,,A,]2 [A,,E,]2 [A,,A,]4 | [D,A,]3 [D,A,] [D,A,]2 [D,A,]2 | %3
 [A,,A,]3 [A,,A,] [A,,A,]4 | [E,G,]3 [E,D] CB, [D,B,]2 | [C,A,]2 [B,,G,]2 [A,,A,]4 | %6
 [D,A,]3 [D,D] [E,C]2 [E,A,]2 | [E,A,]2 [E,G,]2 A,4 | C2 C>C C2 C,2 | F,2 G,2 A,4 | %10
 [E,E]2 [E,E]>[E,E] [E,E]2 [G,B,]2 | A,2 A,>A, A,4 | [A,C]2 [A,C]>[A,B,] A,2 [A,,A,][B,,G,] | %13
 [C,A,]2 [C,A,]2 [D,A,]4 | [A,,A,]2 C,>E, A,2 [A,,A,]2 | [E,G,]4 [A,,A,]4- | [A,,A,]4 z4 |] %17
V:4
 x8 | x8 | x8 | x8 | z4 E,2 z2 | x8 | x8 | x8 | x8 | x8 | x8 | x8 | x8 | x8 | x8 | x8 | x8 |] %17

